src/assets/images/meraki-presencia-online.svg

<svg width="378" height="266" viewBox="0 0 378 266" fill="none" xmlns="http://www.w3.org/2000/svg">
<g clip-path="url(#clip0)">
<path d="M16.8369 102.223C17.1983 124.538 25.5385 126.954 35.7806 124.626C47.481 121.967 57.0842 113.634 61.8174 102.608L65.0816 95.0047C67.2516 89.9495 67.3247 84.2394 65.2846 79.1304C63.2446 74.0214 59.2586 69.9321 54.2034 67.762H54.2034C51.7004 66.6875 49.0102 66.1165 46.2865 66.0817C43.5628 66.0468 40.8589 66.5488 38.3291 67.5589C35.7994 68.569 33.4934 70.0675 31.5429 71.9689C29.5923 73.8702 28.0353 76.1371 26.9607 78.6401C16.457 82.7662 14.3825 91.3085 16.8369 102.223Z" fill="#2F2E41"/>
<path d="M82.6947 57.3116L85.8383 51.9921C86.2221 51.3425 86.4539 50.6144 86.5163 49.8624C86.5786 49.1105 86.4698 48.3542 86.1981 47.6502C85.9264 46.9463 85.4988 46.3131 84.9474 45.798C84.3961 45.2829 83.7352 44.8994 83.0144 44.6762V44.6762C82.2537 44.4406 81.4476 44.3902 80.6635 44.5293C79.8793 44.6684 79.1397 44.9929 78.5064 45.4757C77.8731 45.9586 77.3643 46.5858 77.0225 47.3051C76.6808 48.0245 76.5159 48.8151 76.5416 49.6111L76.7263 55.3291L61.9528 95.8161L70.009 97.498L82.6947 57.3116Z" fill="#9F616A"/>
<path d="M4.97176 157.119L1.10237 161.936C0.629863 162.525 0.296706 163.212 0.127894 163.948C-0.0409188 164.683 -0.0410045 165.447 0.127642 166.183C0.296289 166.918 0.62929 167.606 1.10166 168.194C1.57403 168.782 2.17351 169.256 2.85513 169.58V169.58C3.57456 169.921 4.36521 170.086 5.16119 170.06C5.95716 170.034 6.73542 169.818 7.43108 169.431C8.12675 169.043 8.71967 168.495 9.16045 167.831C9.60122 167.168 9.87708 166.409 9.96503 165.617L10.5968 159.931L30.9877 121.962L23.2532 119.15L4.97176 157.119Z" fill="#9F616A"/>
<path d="M28.8783 197.197L29.4478 204.039L29.5814 205.635L67.4522 201.993C68.7576 201.846 70.0098 201.393 71.1072 200.67C72.2045 199.948 73.116 198.977 73.7675 197.837C74.4191 196.696 74.7923 195.418 74.8568 194.106C74.9213 192.794 74.6754 191.485 74.139 190.286L61.9256 164.066L57.7068 155.009L39.4253 150.791C24.3501 162.329 37.9135 175.063 54.9786 187.944C55.6466 188.451 56.3216 188.957 57.0036 189.463L28.8783 197.197Z" fill="#2F2E41"/>
<path d="M16.1175 220.888C16.579 220.954 17.0496 220.9 17.4843 220.732C17.919 220.564 18.3032 220.287 18.6 219.928L30.9877 204.932L30.2846 197.901L26.0607 195.366C25.7152 195.159 25.3287 195.029 24.9281 194.987C24.5274 194.944 24.1222 194.989 23.7407 195.118C23.3591 195.248 23.0103 195.459 22.7186 195.736C22.4268 196.014 22.199 196.352 22.0511 196.727L13.9714 217.196C13.8205 217.578 13.7582 217.989 13.7891 218.399C13.82 218.809 13.9433 219.207 14.1499 219.562C14.3564 219.917 14.6407 220.221 14.9815 220.451C15.3223 220.681 15.7107 220.83 16.1175 220.888V220.888Z" fill="#2F2E41"/>
<path opacity="0.2" d="M26.7689 195.791L27.472 204.229L29.4478 204.039L65.3428 200.587C66.6482 200.439 67.9004 199.986 68.9978 199.264C70.0951 198.542 71.0066 197.571 71.6581 196.43C72.3097 195.29 72.6829 194.011 72.7474 192.699C72.812 191.387 72.566 190.079 72.0296 188.879L61.9256 166.26V164.066L57.7068 155.009L39.4253 150.791C24.3501 162.329 37.9136 175.063 54.9786 187.944L54.8942 188.057L26.7689 195.791Z" fill="black"/>
<path d="M12.6018 218.076C13.0633 218.142 13.5339 218.088 13.9686 217.92C14.4033 217.751 14.7875 217.474 15.0843 217.115L27.472 202.119L26.7689 195.088L22.5451 192.554C22.1995 192.346 21.813 192.217 21.4124 192.174C21.0117 192.131 20.6066 192.176 20.225 192.305C19.8435 192.435 19.4947 192.646 19.2029 192.924C18.9111 193.202 18.6833 193.54 18.5354 193.915L10.4558 214.383C10.3049 214.765 10.2425 215.177 10.2734 215.587C10.3043 215.997 10.4277 216.394 10.6342 216.749C10.8407 217.105 11.125 217.409 11.4658 217.638C11.8066 217.868 12.195 218.018 12.6018 218.076V218.076Z" fill="#2F2E41"/>
<path d="M25.3626 194.385L26.0657 202.823L63.9365 199.179C65.2418 199.032 66.494 198.579 67.5914 197.857C68.6888 197.135 69.6004 196.165 70.2522 195.024C70.904 193.884 71.2775 192.606 71.3425 191.294C71.4075 189.982 71.1621 188.673 70.6263 187.474L60.5193 164.853V152.197L35.9096 147.978C20.2413 159.97 35.5076 173.253 53.488 186.65L25.3626 194.385Z" fill="#2F2E41"/>
<path d="M49.2692 95.2431C55.0941 95.2431 59.8162 90.5211 59.8162 84.6961C59.8162 78.8712 55.0941 74.1491 49.2692 74.1491C43.4442 74.1491 38.7222 78.8712 38.7222 84.6961C38.7222 90.5211 43.4442 95.2431 49.2692 95.2431Z" fill="#9F616A"/>
<path d="M35.2065 102.274L49.9723 112.118L62.6287 109.306L55.5974 102.274V91.7275L44.3472 91.0243C44.111 95.2361 41.6977 99.0902 35.2065 102.274Z" fill="#9F616A"/>
<path d="M33.0971 151.494L60.5193 155.009L66.8475 125.478C69.7874 117.639 68.1006 110.713 62.6577 104.529C62.4495 103.488 61.895 102.548 61.0845 101.863C60.2739 101.178 59.2552 100.787 58.1943 100.755L55.5974 100.868C55.8911 110.194 49.0206 107.947 38.7222 100.165L37.4786 100.538C35.8711 101.02 34.4909 102.065 33.5907 103.482C32.6905 104.898 32.3304 106.592 32.5764 108.252L33.7103 115.906C34.1911 118.94 34.9381 121.926 35.9424 124.83C38.7539 133.232 37.7492 142.128 33.0971 151.494Z" fill="#F9A826"/>
<path d="M20.4407 119.853L33.0971 124.072L38.7222 103.681L36.8165 102.815C35.2366 102.096 33.4426 102.006 31.7986 102.562C30.1546 103.118 28.7837 104.279 27.9642 105.809L20.4407 119.853Z" fill="#F9A826"/>
<path d="M57.7067 100.868L64.7382 108.603L73.1756 95.243L62.6285 89.6181L57.7067 100.868Z" fill="#F9A826"/>
<path d="M36.9644 81.532C43.5921 84.0312 50.6652 83.7721 58.0584 81.532V73.0944H36.9644V81.532Z" fill="#2F2E41"/>
<path d="M365.909 226.372L358.637 229.401L310.163 163.355L275.019 230.613L265.93 228.796L292.591 136.088H323.493L365.909 226.372Z" fill="#2F2E41"/>
<path d="M375.663 241.779C375.26 241.889 374.839 241.918 374.425 241.865C374.011 241.811 373.611 241.677 373.249 241.468L357.914 232.639C357.501 232.401 357.147 232.07 356.881 231.674C356.616 231.277 356.445 230.824 356.382 230.351C356.32 229.877 356.367 229.395 356.52 228.943C356.674 228.491 356.929 228.08 357.267 227.742L358.637 226.372L365.908 225.766L377.024 236.437C377.428 236.825 377.722 237.313 377.876 237.852C378.03 238.391 378.038 238.961 377.9 239.504C377.762 240.047 377.482 240.544 377.089 240.944C376.696 241.343 376.204 241.632 375.663 241.779Z" fill="#2F2E41"/>
<path d="M256.781 244.203C257.184 244.313 257.604 244.342 258.019 244.288C258.433 244.235 258.833 244.1 259.195 243.892L274.53 235.063C274.943 234.825 275.297 234.494 275.563 234.097C275.828 233.7 275.999 233.248 276.062 232.774C276.124 232.301 276.077 231.819 275.924 231.367C275.77 230.915 275.515 230.504 275.177 230.166L273.807 228.795L266.536 228.189L255.42 238.86C255.016 239.249 254.722 239.737 254.568 240.276C254.414 240.815 254.406 241.385 254.544 241.928C254.682 242.471 254.962 242.968 255.355 243.367C255.748 243.767 256.24 244.055 256.781 244.203V244.203Z" fill="#2F2E41"/>
<path d="M271.989 39.7446L268.959 41.5624L262.681 31.36C262.295 30.7334 262.066 30.0233 262.012 29.2895C261.959 28.5557 262.082 27.8198 262.373 27.1438C262.663 26.4679 263.112 25.8716 263.681 25.4054C264.251 24.9393 264.923 24.6168 265.643 24.4652C266.284 24.3304 266.945 24.3341 267.584 24.476C268.222 24.6178 268.823 24.8946 269.346 25.2877C269.869 25.6808 270.302 26.1812 270.615 26.7553C270.929 27.3294 271.116 27.9639 271.165 28.6163L271.989 39.7446Z" fill="#FFB9B9"/>
<path d="M355.915 119.175L357.171 115.873L368.414 120.009C369.105 120.263 369.724 120.679 370.22 121.223C370.716 121.766 371.074 122.421 371.263 123.132C371.453 123.843 371.469 124.589 371.31 125.307C371.151 126.026 370.822 126.695 370.35 127.259V127.259C369.93 127.761 369.408 128.167 368.818 128.451C368.228 128.734 367.585 128.888 366.931 128.903C366.277 128.917 365.627 128.791 365.026 128.534C364.425 128.277 363.885 127.894 363.444 127.411L355.915 119.175Z" fill="#FFB9B9"/>
<path d="M308.345 76.1005C313.365 76.1005 317.434 72.0313 317.434 67.0116C317.434 61.9919 313.365 57.9226 308.345 57.9226C303.325 57.9226 299.256 61.9919 299.256 67.0116C299.256 72.0313 303.325 76.1005 308.345 76.1005Z" fill="#FFB9B9"/>
<path d="M316.222 86.4013H303.497V72.465L314.404 71.253L316.222 86.4013Z" fill="#FFB9B9"/>
<path d="M325.311 139.723H290.773C291.991 120.453 292.955 101.83 290.773 91.2488L292.781 81.6091C293.059 80.2735 293.83 79.0915 294.94 78.2982C296.05 77.5049 297.418 77.1584 298.772 77.3276L303.497 77.9183C306.698 83.5446 310.565 83.4903 315.01 78.5243H320.702C321.461 78.5243 322.212 78.6756 322.912 78.9695C323.612 79.2634 324.246 79.6939 324.777 80.2358C325.308 80.7777 325.726 81.4201 326.006 82.1255C326.286 82.8308 326.423 83.5849 326.408 84.3437C327.89 91.1332 328.384 98.1014 327.872 105.032L325.311 139.723Z" fill="#3F3D56"/>
<path d="M267.141 39.7445L271.989 37.321L298.044 80.3422L290.773 91.2488L267.141 39.7445Z" fill="#3F3D56"/>
<path d="M355.983 120.899L360.126 117.405L338.114 86.56C335.96 83.5424 332.991 81.2008 329.555 79.8096C326.119 78.4183 322.357 78.035 318.711 78.7044L318.017 78.832L326.34 93.3979L337.303 101.698L355.983 120.899Z" fill="#3F3D56"/>
<path d="M318.856 61.6462C318.856 61.6462 320.555 57.9097 316.139 56.2114C316.139 56.2114 312.402 50.0972 304.93 54.1733C304.93 54.1733 299.834 56.2114 299.834 61.6462C299.834 67.081 298.136 68.1 298.136 68.1C298.136 68.1 300.665 65.5053 301.345 63.4672C302.024 61.4292 307.307 60.9668 309.345 63.0049C311.383 65.0429 316.479 64.7032 316.479 64.7032L316.139 72.1761C316.139 72.1761 317.837 67.7603 318.517 67.7603C319.196 67.7603 319.875 61.6462 318.856 61.6462Z" fill="#2F2E41"/>
<path d="M318.017 265.042C348.731 265.042 373.63 263.745 373.63 262.146C373.63 260.546 348.731 259.249 318.017 259.249C287.303 259.249 262.404 260.546 262.404 262.146C262.404 263.745 287.303 265.042 318.017 265.042Z" fill="#E6E6E6"/>
<path d="M40.3478 263.677C56.5825 263.677 69.7434 262.991 69.7434 262.146C69.7434 261.3 56.5825 260.615 40.3478 260.615C24.1131 260.615 10.9522 261.3 10.9522 262.146C10.9522 262.991 24.1131 263.677 40.3478 263.677Z" fill="#E6E6E6"/>
<path d="M264.94 51.7894L86.2347 67.8056C85.3572 67.8832 84.4848 67.6096 83.8088 67.0448C83.1328 66.48 82.7084 65.6702 82.6288 64.7929L78.6558 20.4638C78.5782 19.5864 78.8518 18.7139 79.4166 18.0379C79.9814 17.3619 80.7913 16.9376 81.6686 16.8579L260.373 0.841708C261.251 0.764106 262.123 1.03771 262.799 1.60251C263.475 2.16731 263.9 2.97717 263.979 3.85446L267.952 48.1835C268.03 49.061 267.756 49.9334 267.191 50.6094C266.627 51.2854 265.817 51.7098 264.94 51.7894V51.7894Z" fill="#F9A826"/>
<path d="M107.117 54.2104C114.824 54.2104 121.072 47.9625 121.072 40.2554C121.072 32.5483 114.824 26.3005 107.117 26.3005C99.4099 26.3005 93.1621 32.5483 93.1621 40.2554C93.1621 47.9625 99.4099 54.2104 107.117 54.2104Z" fill="white"/>
<path d="M138.387 28.1123C137.774 28.1684 137.207 28.4657 136.813 28.9389C136.418 29.412 136.228 30.0224 136.283 30.636C136.338 31.2497 136.634 31.8164 137.106 32.2118C137.579 32.6073 138.189 32.7992 138.802 32.7453L248.011 22.9577C248.315 22.9308 248.612 22.8442 248.883 22.7028C249.154 22.5613 249.394 22.3678 249.59 22.1334C249.786 21.8989 249.934 21.6281 250.026 21.3363C250.117 21.0446 250.15 20.7377 250.123 20.4332C250.096 20.1288 250.009 19.8326 249.867 19.5618C249.725 19.291 249.531 19.0508 249.296 18.8549C249.062 18.6591 248.791 18.5115 248.499 18.4205C248.207 18.3295 247.9 18.2969 247.596 18.3246L138.387 28.1123Z" fill="white"/>
<path d="M139.633 42.0115C139.328 42.0382 139.032 42.1247 138.761 42.2661C138.49 42.4075 138.249 42.601 138.053 42.8355C137.856 43.07 137.708 43.3409 137.617 43.6327C137.525 43.9245 137.492 44.2315 137.519 44.5361C137.547 44.8406 137.634 45.1369 137.776 45.4078C137.918 45.6786 138.112 45.9189 138.347 46.1147C138.581 46.3106 138.853 46.4582 139.145 46.5491C139.437 46.64 139.744 46.6725 140.048 46.6446L249.256 36.8569C249.561 36.8301 249.857 36.7435 250.128 36.602C250.399 36.4606 250.64 36.2671 250.836 36.0326C251.032 35.7982 251.18 35.5273 251.271 35.2356C251.363 34.9439 251.396 34.637 251.369 34.3325C251.341 34.028 251.254 33.7319 251.112 33.4611C250.971 33.1902 250.777 32.95 250.542 32.7542C250.307 32.5583 250.036 32.4107 249.744 32.3197C249.453 32.2287 249.146 32.1961 248.841 32.2239L139.633 42.0115Z" fill="white"/>
</g>
<defs>
<clipPath id="clip0">
<rect y="0.828308" width="378" height="264.214" fill="white"/>
</clipPath>
</defs>
</svg>

<svg xmlns="http://www.w3.org/2000/svg" width="378" height="266" fill="none" xmlns:v="https://vecta.io/nano"><g clip-path="url(#A)"><path d="M16.837 102.223c.36 22.315 8.702 24.73 18.944 22.403 11.7-2.66 21.304-10.992 26.037-22.018l3.264-7.603c2.17-5.055 2.243-10.765.203-15.874a20.74 20.74 0 0 0-11.081-11.368h0a20.74 20.74 0 0 0-7.917-1.68c-2.724-.035-5.428.467-7.957 1.477a20.74 20.74 0 0 0-6.786 4.41c-1.95 1.9-3.508 4.168-4.582 6.67-10.504 4.126-12.578 12.668-10.124 23.583z" fill="#2f2e41"/><g fill="#9f616a"><path d="M82.695 57.312l3.144-5.32a5 5 0 0 0 .36-4.342c-.272-.704-.7-1.337-1.25-1.852a4.97 4.97 0 0 0-1.933-1.122h0a4.99 4.99 0 0 0-2.35-.147 5 5 0 0 0-4.122 5.082l.185 5.718-14.773 40.487 8.056 1.682 12.686-40.186zM4.972 157.12l-3.87 4.817a5 5 0 0 0-.974 2.012 4.96 4.96 0 0 0 0 2.235c.17.735.502 1.423.974 2a5.02 5.02 0 0 0 1.753 1.386h0a4.99 4.99 0 0 0 2.306.48 4.96 4.96 0 0 0 2.27-.63c.696-.388 1.3-.936 1.73-1.6a5.01 5.01 0 0 0 .805-2.214l.632-5.686 20.4-37.97-7.735-2.812-18.28 37.97z"/></g><g fill="#2f2e41"><path d="M28.878 197.197l.703 8.438 37.87-3.642a8.34 8.34 0 0 0 3.655-1.323c1.097-.722 2.01-1.693 2.66-2.833a8.35 8.35 0 0 0 .371-7.551L57.707 155.01l-18.28-4.218c-15.075 11.538-1.512 24.272 15.553 37.153l2.025 1.52-28.125 7.734z"/><path d="M16.118 220.888c.462.066.932.012 1.367-.156a2.72 2.72 0 0 0 1.116-.804l12.388-14.996-.703-7.03-4.224-2.535c-.346-.207-.732-.337-1.133-.38a2.78 2.78 0 0 0-1.187.131 2.79 2.79 0 0 0-1.022.618c-.292.278-.52.616-.667.99l-8.08 20.47c-.15.382-.213.793-.182 1.203a2.72 2.72 0 0 0 .361 1.163c.207.355.49.66.832.89s.73.38 1.136.437h0z"/></g><path opacity=".2" d="M26.77 195.79l.703 8.438 37.87-3.642c1.305-.148 2.558-.6 3.655-1.323s2.01-1.693 2.66-2.834 1.025-2.42 1.09-3.73a8.35 8.35 0 0 0-.718-3.82l-10.104-22.62v-2.194l-4.22-9.057-18.28-4.218c-15.075 11.538-1.512 24.272 15.553 37.153l-.084.113-28.125 7.734z" fill="#000"/><g fill="#2f2e41"><path d="M12.602 218.076c.46.066.932.012 1.367-.156a2.73 2.73 0 0 0 1.116-.805l12.388-14.996-.703-7.03-4.224-2.534a2.77 2.77 0 0 0-1.133-.38 2.78 2.78 0 0 0-1.187.131c-.382.13-.73.34-1.022.62s-.52.616-.668.99l-8.08 20.468a2.72 2.72 0 0 0-.182 1.204c.03.4.154.807.36 1.162s.49.66.832.89.73.38 1.136.438h0z"/><path d="M25.363 194.385l.703 8.438 37.87-3.644a8.35 8.35 0 0 0 3.655-1.322c1.097-.722 2.01-1.692 2.66-2.833s1.025-2.418 1.1-3.73a8.35 8.35 0 0 0-.716-3.82l-10.107-22.62v-12.656l-24.6-4.22c-15.668 11.992-.402 25.275 17.578 38.672l-28.125 7.735z"/></g><g fill="#9f616a"><path d="M49.27 95.243a10.55 10.55 0 0 0 10.547-10.547 10.55 10.55 0 0 0-10.547-10.547 10.55 10.55 0 0 0-10.547 10.547 10.55 10.55 0 0 0 10.547 10.547z"/><path d="M35.207 102.274l14.766 9.844 12.656-2.812-7.03-7.032V91.728l-11.25-.703c-.236 4.212-2.65 8.066-9.14 11.25z"/></g><g fill="#f9a826"><path d="M33.097 151.494l27.422 3.515 6.328-29.53c2.94-7.84 1.253-14.765-4.2-20.95-.208-1.04-.763-1.98-1.573-2.666a4.7 4.7 0 0 0-2.89-1.108l-2.597.113c.294 9.326-6.577 7.08-16.875-.703l-1.244.373a6.98 6.98 0 0 0-3.888 2.944c-.9 1.416-1.26 3.1-1.014 4.77l1.134 7.654c.48 3.034 1.228 6.02 2.232 8.924 2.812 8.402 1.807 17.298-2.845 26.664z"/><path d="M20.44 119.853l12.656 4.22 5.625-20.4-1.906-.866a6.83 6.83 0 0 0-8.852 2.994l-7.524 14.044zm37.267-18.985l7.032 7.735 8.437-13.36-10.547-5.625-4.922 11.25z"/></g><g fill="#2f2e41"><path d="M36.964 81.532c6.628 2.5 13.7 2.24 21.094 0v-8.438H36.964v8.438zM365.9 226.372l-7.272 3.03-48.474-66.046-35.144 67.258-9.1-1.817 26.66-92.708h30.902l42.416 90.284z"/><path d="M375.663 241.78c-.403.1-.824.14-1.238.086a3.17 3.17 0 0 1-1.176-.397l-15.335-8.83c-.413-.238-.767-.57-1.033-.965a3.13 3.13 0 0 1-.499-1.323c-.062-.474-.015-.956.138-1.408a3.12 3.12 0 0 1 .747-1.201l1.37-1.37 7.27-.606 11.116 10.67a3.17 3.17 0 0 1-1.361 5.342zm-118.883 2.423a3.15 3.15 0 0 0 1.238.085 3.17 3.17 0 0 0 1.176-.396l15.335-8.83a3.12 3.12 0 0 0 1.033-.966c.265-.397.436-.85.5-1.323s.015-.955-.138-1.407a3.12 3.12 0 0 0-.747-1.201l-1.37-1.37-7.27-.606-11.116 10.67c-.404.4-.698.877-.852 1.416a3.17 3.17 0 0 0-.024 1.652 3.16 3.16 0 0 0 .811 1.439 3.17 3.17 0 0 0 1.426.836h0z"/></g><g fill="#ffb9b9"><path d="M272 39.745l-3.03 1.818-6.278-10.202a4.59 4.59 0 0 1-.308-4.216c.3-.676.74-1.272 1.308-1.738s1.242-.8 1.962-.94a4.59 4.59 0 0 1 3.703.823 4.58 4.58 0 0 1 1.269 1.468c.314.574.5 1.2.55 1.86L272 39.746zm83.925 79.43l1.256-3.302 11.243 4.136a4.58 4.58 0 0 1 1.806 1.214 4.57 4.57 0 0 1 1.043 1.91 4.6 4.6 0 0 1 .047 2.175 4.58 4.58 0 0 1-.96 1.952h0c-.42.502-.942.908-1.532 1.192a4.59 4.59 0 0 1-1.887.452c-.654.015-1.304-.112-1.905-.37s-1.14-.64-1.582-1.123l-7.53-8.236zM308.345 76.1a9.09 9.09 0 0 0 9.089-9.089 9.09 9.09 0 0 0-9.089-9.089 9.09 9.09 0 0 0-9.089 9.089 9.09 9.09 0 0 0 9.089 9.089z"/><path d="M316.222 86.4h-12.725V72.465l10.907-1.212 1.818 15.148z"/></g><g fill="#3f3d56"><path d="M325.31 139.723h-34.538c1.218-19.27 2.182-37.893 0-48.474l2.008-9.64a5.43 5.43 0 0 1 5.991-4.281l4.725.59c3.2 5.626 7.068 5.572 11.513.606h5.692a5.71 5.71 0 0 1 2.21.445 5.7 5.7 0 0 1 1.865 1.266 5.71 5.71 0 0 1 1.229 1.89c.28.705.417 1.46.402 2.218 1.482 6.8 1.976 13.758 1.464 20.688l-2.56 34.69z"/><path d="M267.14 39.745l4.848-2.424 26.055 43.02-7.27 10.907-23.632-51.504zm88.843 81.155l4.143-3.494-22.012-30.845a19.5 19.5 0 0 0-8.56-6.75 19.51 19.51 0 0 0-10.844-1.105l-.694.128L326.34 93.4l10.963 8.3 18.68 19.2z"/></g><path d="M318.856 61.646s1.7-3.736-2.717-5.435c0 0-3.737-6.114-11.21-2.038 0 0-5.096 2.038-5.096 7.473s-1.698 6.454-1.698 6.454 2.53-2.595 3.21-4.633 5.962-2.5 8-.462 7.134 1.698 7.134 1.698l-.34 7.473s1.698-4.416 2.378-4.416 1.358-6.114.34-6.114z" fill="#2f2e41"/><g fill="#e6e6e6"><path d="M318.017 265.042c30.714 0 55.613-1.297 55.613-2.896s-24.9-2.897-55.613-2.897-55.613 1.297-55.613 2.897 24.9 2.896 55.613 2.896zm-277.67-1.365c16.235 0 29.396-.686 29.396-1.53s-13.16-1.53-29.396-1.53-29.396.685-29.396 1.53 13.16 1.53 29.396 1.53z"/></g><path d="M264.94 51.79L86.235 67.806c-.877.078-1.75-.196-2.426-.76s-1.1-1.375-1.18-2.252l-3.973-44.33c-.078-.877.196-1.75.76-2.426s1.375-1.1 2.252-1.18L260.373.842c.878-.078 1.75.196 2.426.76s1.1 1.375 1.18 2.252l3.973 44.33c.078.877-.196 1.75-.76 2.426s-1.374 1.1-2.25 1.18h0z" fill="#f9a826"/><g fill="#fff"><path d="M107.117 54.2a13.96 13.96 0 0 0 13.955-13.955 13.96 13.96 0 0 0-13.955-13.955 13.96 13.96 0 0 0-13.955 13.955A13.95 13.95 0 0 0 107.117 54.2zm31.27-26.088a2.32 2.32 0 0 0-1.574.827 2.33 2.33 0 0 0-.53 1.697c.055.613.35 1.18.823 1.576a2.33 2.33 0 0 0 1.696.534l109.2-9.788a2.33 2.33 0 0 0 .872-.255 2.35 2.35 0 0 0 .707-.57 2.34 2.34 0 0 0 .533-1.7 2.31 2.31 0 0 0-.256-.87c-.142-.27-.336-.5-.57-.707s-.505-.343-.797-.434-.6-.124-.903-.096l-109.2 9.788zm1.246 13.9a2.32 2.32 0 0 0-.872.255 2.31 2.31 0 0 0-.708.57c-.196.235-.345.505-.436.797a2.32 2.32 0 0 0-.098.903 2.34 2.34 0 0 0 .257.872c.142.27.336.5.57.707a2.3 2.3 0 0 0 .798.434 2.32 2.32 0 0 0 .903.095l109.208-9.788a2.32 2.32 0 0 0 .872-.255 2.31 2.31 0 0 0 .708-.57 2.32 2.32 0 0 0 .533-1.7c-.028-.305-.115-.6-.257-.87a2.35 2.35 0 0 0-.57-.707 2.31 2.31 0 0 0-.798-.434 2.32 2.32 0 0 0-.903-.096l-109.208 9.788z"/></g></g><defs><clipPath id="A"><path fill="#fff" d="M0 .828h378v264.214H0z"/></clipPath></defs></svg>
